X: 18657
T: I'll Buy Boots For Maggie
R: polka
M: 2/4
K: Aminor
|:EA AB|cB AB|EA AB|cB A2|
EA AB|cB AB|ef/e/ dB|BA AG:|
|:A>B cd|eg a2|ef/e/ dB|BA AG|
A>B cd|eg a2|ef/e/ dB|BA AG:|

